!!!Melodie: eigene
!!!Typ: Lied
**kern	**silbe	**silbe	**silbe	**silbe	**silbe	**silbe
*clefG2	*lang:DE	*lang:DE	*lang:DE	*lang:DE	*lang:DE	*lang:DE
*M4/4	*	*	*	*	*	*
*met(c)	*	*	*	*	*	*
4c	Wach#	Mit#	Zi#	Ihr	Glo#	von
4e	#et	#ter#	#on	Freund	#ri#	zwölf
4g	auf,	#nacht	hört	kommt	#a	Per#
4g	ruft	heißt	die	vom	sei	#len
=	=	=	=	=	=	=
4a	uns	die#	Wäch#	Him#	dir	sind
4b	die	#se	#ter	#mel	ge#	die
2a	Stim#	Stun#	sin#	präch#	#sun#	Pfor#
=	=	=	=	=	=	=
4;g	#me,	#de;	#gen,	#tig,	#gen,	#ten
4g	Der	sie	das	von	mit	an
4cc	Wäch#	ru#	Herz	Gna#	Men#	dei#
4b	#ter	#fen	tut	#den	#schen	#ner
=	=	=	=	=	=	=
4cc	sehr	uns	ihr	stark,	und	Stadt:
4ee	hoch	mit	vor	von	eng#	wir
4dd	auf	hel#	Freu#	Wahr#	#lisch#	sind
4cc	der	#lem	#den	#heit	#en	Kon#
=	=	=	=	=	=	=
2dd	Zin#	Mun#	sprin#	mäch#	Zun#	#sor#
4;g	#ne:	#de:	#gen,	#tig;	#gen,	#ten
4g	wach	wo	sie	ihr	mit	der
=	=	=	=	=	=	=
4cc	auf,	seid	wach#	Licht	Har#	En#
4g	du	ihr	#et	wird	#fen	#gel
4a	Stadt	klu#	und	hell,	und	hoch
4e	Je#	#gen	steht	ihr	mit	um
=	=	=	=	=	=	=
8Lg	#ru#	Jung#	ei#	Stern	Zim#	dei#
8Jf	|	|	|	|	|	|
8Le	#sa#	#frau#	#lend	geht	#beln	#nen
8Jd	|	|	|	|	|	|
2;c	#lem!	#en?	auf:	auf.	schon.	Thron,
=:|	=	=	=	=	=	=
4r	.	%	.	%	.	%
4g	.	Wohl#	.	Nun	.	kein
4g	.	#auf,	.	komm,	.	Aug’
4f	.	der	.	du	.	hat
=	=	=	=	=	=	=
4e	.	Bräut#	.	wer#	.	je
4d	.	#'gam	.	#te	.	ge#
4;c	.	kommt!	.	Kron’,	.	#spürt,
4g	.	Steht	.	Herr	.	kein
=	=	=	=	=	=	=
4g	.	auf,	.	Je#	.	Ohr
4f	.	die	.	#su	.	hat
4e	.	Lam#	.	Got#	.	mehr
4d	.	#pen	.	#tes	.	ge#
=	=	=	=	=	=	=
2;c	.	nehmt!	.	Sohn!	.	#hört,
4d	.	Hal#	.	Ho#	.	sol#
4e	.	#le#	.	#si#	.	#che
=	=	=	=	=	=	=
2f	.	#lu#	.	#an#	.	Freu#
4;g	.	#ja!	.	#n!	.	#de,
4a	.	Macht	.	Wir	.	des
=	=	=	=	=	=	=
4b	.	euch	.	fol#	.	sind
4cc	.	be#	.	#gen	.	wir
4;dd	.	#reit	.	all’	.	fro,
4ff	.	zu	.	zum	.	i#
=	=	=	=	=	=	=
8Lee	.	der	.	Freu#	.	#o,
8Jdd	.	|	.	|	.	|
4ee	.	Hoch#	.	#den#	.	i#
4;dd	.	#zeit!	.	#saal,	.	#o!
4g	.	Ihr	.	und	.	E#
=	=	=	=	=	=	=
4dd	.	müs#	.	hal#	.	#wig
4g	.	#set	.	#ten	.	in
4a	.	ihm	.	mit	.	dul#
4e	.	ent#	.	das	.	#ci
=	=	=	=	=	=	=
8Lg	.	#ge#	.	A#	.	iu#
8Jf	.	|	.	|	.	|
8Le	.	#gen	.	#bend#	.	#bi#
8Jd	.	|	.	|	.	|
2;c	.	geh’n.	.	#mahl.	.	#lo.
==	==	==	==	==	==	==
*-	*-	*-	*-	*-	*-	*-
